!!!!SEGMENT: pl-kk--kk-i-8--022_anonim--iste-confessor-domini.krn
!!!cenid: 16xx:1163
!!!COM: Anonim
!!!COM-rismID: pe30004985
!!!CDT:
!!!CNT:
!!!OTL: Iste Confessor Domini
!!!PDT:
!!!AGN: Sacred
!!!SMS-siglum: PL-Kk
!!!SMS-shelfmark: Kk.I.8
!!!SMS-shelfwork: 022 W
!!!SMS-variant:
!!!SMS-altvar:
!!!NIFC-rismSourceID: 1001148875
!!!NIFC-islandoraID: pl-kk:2296
!!!URL-pdf-islandora: https://repozytorium.nifc.pl/islandora/object/pl-kk%3A2296/datastream/PDF/view
!!!URL-scan: https://polish.musicsources.pl/pl/lokalizacje/galeria/rekopisy/6141 @EN{Scan on Polish Music Sources Website} @PL{Skany w portalu Dziedzictwo Muzyki Polskiej w otwartym dostępie}
!!!ONB-nifc: UWAGA: A (skan 0012), T1 (0037), T2 (0059), B (0082). Następny utwór: Jesu Redemptor
!!!AIN: 1 alto 1 bass 2 tenor
!!!key:
**kern	**text	**text	**text	**kern	**text	**text	**text	**kern	**text	**text	**text	**kern	**text	**text	**text
*part4	*part4	*part4	*part4	*part3	*part3	*part3	*part3	*part2	*part2	*part2	*part2	*part1	*part1	*part1	*part1
*staff4	*staff4	*staff4	*staff4	*staff3	*staff3	*staff3	*staff3	*staff2	*staff2	*staff2	*staff2	*staff1	*staff1	*staff1	*staff1
*Ibass	*	*	*	*Itenor	*	*	*	*Itenor	*	*	*	*Ialto	*	*	*
*I"[BASSVS.]	*	*	*	*I"[TENOR 2dus.]	*	*	*	*I"[Tenore 1mo]	*	*	*	*I"[alto.]	*	*	*
*I'B	*	*	*	*I'T 2	*	*	*	*I'T 1	*	*	*	*I'A	*	*	*
*clefF4	*	*	*	*clefC4	*	*	*	*clefC4	*	*	*	*clefC3	*	*	*
*k[]	*	*	*	*k[]	*	*	*	*k[]	*	*	*	*k[]	*	*	*
*C:	*	*	*	*C:	*	*	*	*C:	*	*	*	*C:	*	*	*
*M2/2	*	*	*	*M2/2	*	*	*	*M2/2	*	*	*	*M2/2	*	*	*
*met(c|)	*	*	*	*met(c|)	*	*	*	*met(c|)	*	*	*	*met(c|)	*	*	*
=1	=1	=1	=1	=1	=1	=1	=1	=1	=1	=1	=1	=1	=1	=1	=1
*all\right	*	*	*	*all\right	*	*	*	*all\right	*	*	*	*	*	*	*
8r	.	.	.	8r	.	.	.	8r	.	.	.	8r	.	.	.
8C/	1_I-	3_Cu-	5_ſit	8c\	1_I-	3_Cu-	5_ſit	8e\	1_I-	3_Cu-	5_ſit	8g\	1_I-	3_Cu-	5_Sit
8C/	-ste	-ius	ſa-	8c\	-ste	-ius	ſa-	8e\	-ste	-ius	ſa-	8g\	-Ste	-i(us)	Sa-
8C/	Con-	ob	-lus	8c\	Con-	ob	-lus	8e\	Con-	ob	-lus	8g\	Con-	ob	-l(us)
4F\	feſ-	prae-	il-	4A\	feſ-	prae-	il-	4f\	fes-	prae-	il-	4a\	feſ-	p(rae)-	il-
!LO:TX:a:t=De Confeſsore et Pontifice	!	!	!	!	!	!	!	!	!	!	!	!	!	!	!
4C/	-sor	-ſtans	-li	4c\	-sor	-ſtans	-li	4e\	-sor	-ſtans	-li	4g\	-ſor	-Stans	-li
=2	=2	=2	=2	=2	=2	=2	=2	=2	=2	=2	=2	=2	=2	=2	=2
!	!	!	!	!LO:TX:a:t=De Confeſsore et Pontifice	!	!	!	!LO:TX:a:i:t=De Confeſsore et Pontifice	!	!	!	!	!	!	!
8.D/	Do-	me-	de-	8.A\	Do-	me-	de-	8.d\	Do-	me-	de-	8.f#X\	Do-	me-	de-
16C/	-mi-	-ri-	-cus	16A\	-mi-	-ri-	-cus	16d\	-mi-	-ri-	-cus	16f#\	-mi-	-ri-	-c(us)
8BB/	-ni	-tum	at-	8B\	-ni	-tu(m)	at-	8d\	-ni	-t(um)	at-	8g\	-ni	-tum	at-
8C/	co-	fre-	-q(ue)	8G\	co-	fre-	-q(ue)	8e\	co-	fre-	-q(ue)	8g\	co-	fre-	-q(ue)
2AA/	-len-	-quen-	Vir-	2A/	-len-	-quen-	Vir-	2c\	-len-	quen-	Vir-	4g\	-len-	.	Vir-
!	!	!	!	!	!	!	!	!	!	!	!	!LO:TX:t=P:problem=# above	!	!	!
.	.	.	.	.	.	.	.	.	.	.	.	4f#X\	.	-quen-	-tus
=3	=3	=3	=3	=3	=3	=3	=3	=3	=3	=3	=3	=3	=3	=3	=3
8GG/	-tes	-ter	tus	8D/	-tes	-ter	-tus	8d\	-tes	-ter	tus	8g,<\	-tes	-ter	q(ui)
8G\	quem	ae-	qui	8B\	que(m)	ae-	qui	8d\	que(m)	ae-	qui	8g\	que(m)	ae-	su-
8G\	pi-	-gra	ſu-	8B\	pi-	-gra	ſu-	8d\	pi-	-gra	ſu-	8g\	pi-	-gra	-per
!	!	!	!	!	!	!	!	!	!	!	!	!LO:TX:a:t=De Confeſsore et Pontifice	!	!	!
8G\	-e	quae	-per	8B\	-e	quae	-per	8B\	-e	qua(e)	-per	8d\	-e	quae	Cae-
4C/	lau-	paſ-	cae-	8G/L	lau-	paſ-	cae-	4c\	lau-	paſ-	cae-	(8.e\L	lau-	paſ-	.
.	.	.	.	8A/J	.	.	.	.	.	.	.	.	.	.	.
.	.	.	.	.	.	.	.	.	.	.	.	16f\Jk)	.	.	.
4GG/	-dant	-sim	-li	4B\	-dant	-sim	-li	4d\	-dant	-sim	-li	4g\	-dant	-sim	-li
=4	=4	=4	=4	=4	=4	=4	=4	=4	=4	=4	=4	=4	=4	=4	=4
8.C/	po-	ia-	so-	8.c\	po-	ia-	ſo-	8.e\	po-	ia-	ſo-	8.e\	po-	ia-	ſo-
16D/	-pu-	-cu-	-lis	16B\	-pu-	-cu-	-li-	16d\	-pu-	-cu-	-li-	16f\	-pu-	-cu-	-li-
8E/	-li	-e-	.	8B\	-li	-e-	-o	8c\	-li	-e-	-o	8g\	-li	-e-	-o
8BB/	per	-re	cor-	8B\	per	-re	co-	8d\	per	-re	cor-	8g\	p(er)	-re	co[[r]]-
4C/	or-	me(m)-	-ruſ-	2A/	or-	mem-	-ru-	4e\	or-	me(m)-	-ru-	4g\	Or-	mem-	-rus-
!LO:SIC:l:v:s=cans:verse3	!	!	!	!	!	!	!	!LO:SIC:l:v:s=cans:verse3	!	!	!	!LO:TX:t=P:problem=# above	!	!	!
!	!	!	!	!	!	!	!	!	!	!	!	!LO:SIC:l:v:s=cans:verse3	!	!	!
4D/	-bem	-bra	-cat	.	.	.	.	4d\	-bem	-bra	-ſcat	4f#X\	-be(m)	-bra	-cat
=5	=5	=5	=5	=5	=5	=5	=5	=5	=5	=5	=5	=5	=5	=5	=5
4.GG/	hac	Vi-	To-	4.B\	-bem	-bra	-ſcans	4.d\	hâc	Vir-	to-	4.g\	hac	vi-	to-
8E\	.	-ri-	-ti-	8c\	hac	Vi-	to-	8e\	.	-ri-	.	8g\	.	-ri-	-ti-
4F\	di-	.	.	4A\	di-	-ri-	-ti-	4c\	di-	-bus	-ti-	4a\	di-	-b(us)	us
4D\	-e	-bus	-us	4A\	-e	-bus	-us	4d\	-e	.	-us	4fn\	-e	mor-	.
=6	=6	=6	=6	=6	=6	=6	=6	=6	=6	=6	=6	=6	=6	=6	=6
8.AA/	lae-	mor-	mun-	8.A\	lae-	mor-	mun-	8.c\	lae-	mor-	mun-	8.e\	lae-	-bi	Mun-
16BB/	-tus	-bi	di	16A\	-tus	-bi	di	16d\	-tus	-bi	di	16e\	-t(us)	.	di
8C#X/	me-	do-	ma-	8A\	me-	do-	ma-	8e\	me-	do-	ma-	8e\	me-	do-	.
8C#/	-ru-	-mi-	-chi-	8A\	-ru-	-mi-	-chi-	8e\	-ru-	-mi-	-chi-	8e\	-ru-	-mi-	.
4D/	-it	-tis	-nam	4A\	-it	-tis	-nam	4d\	-it	-tis	-nam	4f,<\	-it	-tis	.
4BB-X/	be-	ſa-	.	4B-X\	be-	ſa-	.	4d\	be-	.	.	4f\	be-	sa-	ma-
=7	=7	=7	=7	=7	=7	=7	=7	=7	=7	=7	=7	=7	=7	=7	=7
4GG/	-a-	-lu-	gu-	(4B\	-a-	-lu-	gu-	4.d\	-a-	ſa-	gu-	2e\	-a-	-lu-	-chi-
4AA/	.	.	-ber-	4A\)	.	.	.	.	.	.	.	.	.	.	.
.	.	.	.	.	.	.	.	8c#X\	.	-lu-	-ber-	.	.	.	.
8D\	-tas	-ti	-nat	8A/	-tas	-ti	-ber-	8d\	-tas	-ti	-nat	2f#X\	-tas	-ti	-na(m)
8D\L	ſcan-	re-	Tri-	8F/L	ſcan-	re-	-nat	8d\	.	.	.	.	.	.	.
8E\	.	.	.	8G/	.	.	.	4c#\	.	re-	Tri-	.	.	.	.
!LO:TX:t=P:problem=# above	!	!	!	!	!	!	!	!	!	!	!	!	!	!	!
8F#X\J	.	.	.	8A/J	.	.	.	.	.	.	.	.	.	.	.
=8	=8	=8	=8	=8	=8	=8	=8	=8	=8	=8	=8	=8	=8	=8	=8
!	!	!	!	!LO:TX:t=P:problem=♮ above	!	!	!	!	!	!	!	!	!	!	!
4G\	.	.	.	4Bn\	.	.	Tri-	4B\	ſcan-	.	.	4d\	Scan-	re-	gu-
!LO:N:acc=-	!	!	!	!	!	!	!	!	!	!	!	!	!	!	!
4Fn\	.	.	.	4A\	.	.	.	4A\	.	.	.	8e\L	.	.	-ber-
.	.	.	.	.	.	.	.	.	.	.	.	8f\J	.	.	.
4E\	.	.	.	4G/	.	.	.	4G/	.	.	.	4g\	.	.	-nat
!	!	!	!	!	!	!	!	!	!	!	!	!LO:TX:t=P:problem=♮ above	!	!	!
4D\	.	.	.	4F/	.	.	.	8A/L	.	.	.	4fn\	.	.	.
.	.	.	.	.	.	.	.	8B/J	.	.	.	.	.	.	.
=9	=9	=9	=9	=9	=9	=9	=9	=9	=9	=9	=9	=9	=9	=9	=9
4C/	.	.	.	4E/	.	.	.	4c\	.	.	.	4e\	.	-re-	Tri-
8D/L	.	.	.	8F/L	.	.	.	4B\	.	.	.	4d\	.	.	.
8E/J	.	.	.	8G/J	.	.	.	.	.	.	.	.	.	.	.
4F\	.	.	.	4A/	.	.	.	4A\	.	.	.	(4c\	.	.	.
4E\	.	.	.	4G/	.	.	.	8B\L	.	.	.	8d\	.	.	-nus
.	.	.	.	.	.	.	.	8c\J	.	.	.	8e\)	.	.	.
=10	=10	=10	=10	=10	=10	=10	=10	=10	=10	=10	=10	=10	=10	=10	=10
4D\	.	-ſti-	-nus	4F/	.	.	.	4d\	.	.	.	4f\	.	.	et
8E\	-de-	-tu-	.	8G/	-de-	-ſti-	-nus	8c\	-de-	-ſti-	-nus	8e\	-de-	.	.
8E\	-re	.	.	8G/	-re	-tu-	et	8c\	-re	-tu-	et	8e\	-re	.	.
2F\	ſe-	-un-	et	2A/	ſe-	-un-	U-	4A\	ſe-	.	U-	4.d\	.	-sti-	u-
.	.	.	.	.	.	.	.	4d\	.	-un-	.	.	.	.	.
.	.	.	.	.	.	.	.	.	.	.	.	8d\	.	-tu-	.
=11-	=11	=11	=11	=11	=11	=11	=11	=11	=11	=11	=11	=11	=11	=11	=11
!	!	!	!	!LO:TX:t=P:problem=brak kreski taktowej	!	!	!	!	!	!	!	!	!	!	!
1G\	.	-un-	U-	1G/	.	.	.	4B\	.	.	.	4d\	Se-	-un-	.
.	.	.	.	.	.	.	.	2c\	.	.	.	4e\	.	.	.
.	.	.	.	.	.	.	.	.	.	.	.	2d\	.	.	.
.	.	.	.	.	.	.	.	4B\	.	.	.	.	.	.	.
=12	=12	=12	=12	=12	=12	=12	=12	=12	=12	=12	=12	=12	=12	=12	=12
!	!	!	!	!LO:TX:t=P:problem=druga fermata pod nutą	!	!	!	!	!	!	!	!	!	!	!
0C/;;	-des	-tur	-nus	0G/;;	-des	-tur	-nus	0c\;;	-des	-tur	-nus	0e\;;	-des	-t(ur)	-nus.
=13||	=13||	=13||	=13||	=13||	=13||	=13||	=13||	=13||	=13||	=13||	=13||	=13||	=13||	=13||	=13||
*M3/1	*	*	*	*M3/1	*	*	*	*M3/1	*	*	*	*M3/1	*	*	*
!LO:LB:g=original	!	!	!	!LO:LB:g=original	!	!	!	!LO:LB:g=original	!	!	!	!LO:LB:g=original	!	!	!
1C/	2_Qui	4_Noſ-	.	1c\	2_Qui	4_Noſ-	.	1c\	2_Qui	4_Noſ-	.	1e\	2_Qui	4_Noſ-	.
1C/	pi-	-ter	.	1G/	pi-	-ter	.	1e\	pi-	-ter	.	1e\	pi-	-ter	.
1BB/	-us	hinc	.	1B\	-us	hinc	.	1d\	-us	hinc	.	1g\	-(us)	hinc	.
=14	=14	=14	=14	=14	=14	=14	=14	=14	=14	=14	=14	=14	=14	=14	=14
0C/	pru-	il-	.	0G/	pru-	il-	.	0c\	pru-	il-	.	0e\	pru-	il-	.
1AA/	-dens	-li	.	1A\	-dens	-li	.	1c\	-dens	-li	.	1e\	-dens	-li	.
=15	=15	=15	=15	=15	=15	=15	=15	=15	=15	=15	=15	=15	=15	=15	=15
1.GG#X/	hu-	Cho-	.	1.B\	hu-	Cho-	.	1.B\	hu-	Cho-	.	1.e\	hu-	cho-	.
2GG#/	-mi-	-rus	.	2B\	-mi-	-rus	.	2B\	-mi-	-rus	.	2e\	-mi-	-r(us)	.
1AA/	-lis	ob	.	1A\	-lis	ob	.	1c\	-lis	.	.	1e\	-lis	.	.
=16	=16	=16	=16	=16	=16	=16	=16	=16	=16	=16	=16	=16	=16	=16	=16
1E\	pu-	ſe-	.	1G#X/	pu-	ſe-	.	1e\	pu-	ob-	.	1e\	pu-	ob-	.
0F\	-di-	-que(n)-	.	0A\	-di-	-quen-	.	0A\	-di-	-ſeque(n)-	.	(1.e\	-di-	-se-	.
.	.	.	.	.	.	.	.	.	.	.	.	2d\)	.	-quen-	.
=17	=17	=17	=17	=17	=17	=17	=17	=17	=17	=17	=17	=17	=17	=17	=17
0.E\	-c(us)	-tem	.	0.G#X/	-cus	-tem	.	0.B\	-cus	-tem	.	0.e\	-c(us)	-te(m)	.
=18	=18	=18	=18	=18	=18	=18	=18	=18	=18	=18	=18	=18	=18	=18	=18
1.C/	So-	Con-	.	1.G/	so-	Con-	.	1.c\	So-	Con-	.	1.e\	so-	con-	.
2C/	-bri-	-ci-	.	2G/	-bri-	-ci-	.	2c\	-bri-	-ci-	.	2e\	-bri-	-ci-	.
1AA/	-am	-nit	.	1A\	-am	-nit	.	1c\	-am	-nit	.	1a\	-am	-nit	.
=19	=19	=19	=19	=19	=19	=19	=19	=19	=19	=19	=19	=19	=19	=19	=19
0E\	du-	lau-	.	0B\	du-	lau-	.	0e\	du-	lau-	.	0g#X\	du-	lau-	.
1C/	-xit	-dem	.	1c\	-xit	-dem	.	1e\	-xit	-dem	.	1a\	-xit	-de(m)	.
=20	=20	=20	=20	=20	=20	=20	=20	=20	=20	=20	=20	=20	=20	=20	=20
1.D\	Si-	ce-	.	1.A\	ſi-	ce-	.	1.d\	Si-	ce-	.	1.f#X\	si-	ce-	.
2C/	-ne	-le-	.	2A\	-ne	-le-	.	2e\	-ne	-le-	.	2f#\	-ne	-le-	.
!	!	!	!	!	!	!	!	!	!	!	!	!LO:TX:t=P:problem=# above	!	!	!
1BB/	la-	-bre-	.	1B\	la-	-bre-	.	1d\	la-	-bre-	.	1g#X\	la-	-bre-	.
=21	=21	=21	=21	=21	=21	=21	=21	=21	=21	=21	=21	=21	=21	=21	=21
1C/	-be	-squ(e)	.	1A\	-be	-squ(e)	.	1c\	-be	-sq(ue)	.	1a\	-be	-sque	.
*lig	*	*	*	*	*	*	*	*	*	*	*	*	*	*	*
!	!	!	!	!LO:TX:t=P:problem=brak kreski taktowej	!	!	!	!	!	!	!	!	!	!	!
1D\	Vi-	pal-	.	0B\	Vi-	pal-	.	0B\	vi-	pal-	.	1.a\	vi-	pal-	.
1E\	.	.	.	.	.	.	.	.	.	.	.	.	.	.	.
.	.	.	.	.	.	.	.	.	.	.	.	2g#X\	.	.	.
*Xlig	*	*	*	*	*	*	*	*	*	*	*	*	*	*	*
=22	=22	=22	=22	=22-	=22	=22	=22	=22	=22	=22	=22	=22	=22	=22	=22
0.AA/	-tam	-mas	.	0.A\	-tam	-mas	.	0.c#X\	-tam	-mas	.	0.a\	-ta(m)	-mas	.
=23	=23	=23	=23	=23	=23	=23	=23	=23	=23	=23	=23	=23	=23	=23	=23
!	!	!	!	!	!	!	!	!LO:N:acc=-	!	!	!	!	!	!	!
1F\	do-	Ut	.	1A\	do-	Ut	.	1cn\	do-	Ut	.	1a\	do-	ut	.
1D\	-nec	pi-	.	1B\	-nec	pi-	.	1d\	-nec	pi-	.	1fn\	-nec	pi-	.
!LO:SIC:l:v:s=is:verse2	!	!	!	!LO:SIC:l:v:s=is:verse2	!	!	!	!LO:SIC:l:v:s=is:verse2	!	!	!	!LO:SIC:l:v:s=is:verse2	!	!	!
1C/	hu-	-js	.	1c\	hu-	-js	.	1e\	hu-	-js	.	1e\	hu-	-js	.
=24	=24	=24	=24	=24	=24	=24	=24	=24	=24	=24	=24	=24	=24	=24	=24
0GG/	-ma-	e-	.	0B\	-ma-	e-	.	0B\	-ma-	e-	.	0d\	-ma-	e-	.
1GG/	-nos	-ius	.	1B\	-nos	-ius	.	1B\	-nos	-ius	.	1d\	-nos	-jus	.
=25	=25	=25	=25	=25	=25	=25	=25	=25	=25	=25	=25	=25	=25	=25	=25
1.G\	a-	pre-	.	1.G/	a-	pre-	.	1.B\	a-	me-	.	1.d\	a-	me-	.
2F\	-ni-	-ci-	.	2G/	-ni-	-ci-	.	2B\	-ni-	-ri-	.	2d\	-ni-	-ri-	.
1E\	-ma-	-bus	.	1G/	-ma-	-bus	.	1c#X\	-ma-	-tis	.	1e\	-ma-	-tis	.
=26	=26	=26	=26	=26	=26	=26	=26	=26	=26	=26	=26	=26	=26	=26	=26
!LO:SIC:l:v:s=vit:verse1	!	!	!	!	!	!	!	!	!	!	!	!	!	!	!
1D\	-uit	iu-	.	1A\	.	iu-	.	1d\	-uit	iu-	.	1f\	.	ju-	.
!LO:SIC:l:v:s=ve:verse2	!	!	!	!	!	!	!	!	!	!	!	!	!	!	!
0AA/	au-	-ue-	.	0A\	-vit	-ve-	.	1.d\	.	-ue-	.	0e\	.	-ve-	.
!	!	!	!	!	!	!	!	!LO:TX:t=P:problem=# below	!	!	!	!	!	!	!
.	.	.	.	.	.	.	.	2c#X\	au-	-mur	.	.	.	.	.
=27	=27	=27	=27	=27	=27	=27	=27	=27	=27	=27	=27	=27	=27	=27	=27
1D\	-rae	-mur	.	1A\	au-	-mur	.	1d\	-rae	o-	.	1f#X\,<	-uit	-mur,	.
(1D\	ſpi-	o-	.	1d\	-rae	o-	.	1f\	Spi-	.	.	(1f#\	au-	o-	.
1E\)	.	.	.	2c\	ſpi-	.	.	2e\	.	.	.	1g\)	.	.	.
.	.	.	.	2B\	.	.	.	2d\	.	.	.	.	.	.	.
=28	=28	=28	=28	=28	=28	=28	=28	=28	=28	=28	=28	=28	=28	=28	=28
1.F\	.	.	.	1.A\	.	.	.	0c\	.	-mne	.	1.a\	-rae	-mne	.
2F\	-ri-	.	.	2A\	-ri-	.	.	.	.	.	.	2a\	Spi-	.	.
2E\	-tus	.	.	1B\	-tus	-mne	.	1d\	.	.	.	2g\	-ri-	.	.
2D\	.	.	.	.	.	.	.	.	.	.	.	2f\	-t(us)	.	.
=29	=29	=29	=29	=29	=29	=29	=29	=29	=29	=29	=29	=29	=29	=29	=29
*	*ij	*	*	*	*ij	*ij	*	*	*	*	*	*	*ij	*	*
1.C/	ſpi-	.	.	0c\	ſpi-	o-	.	0e\	.	o-	.	1.e\	Spi-	per	.
2D/	.	.	.	.	.	.	.	.	.	.	.	2f\	-ri-	.	.
2E\	.	.	.	2B\	.	.	.	2d\	.	.	.	2g\	-t(us)	.	.
*	*	*	*	*	*	*	*	*	*	*	*	*	*Xij	*	*
2F\	.	.	.	2A\	.	.	.	2c\	.	.	.	4f\	.	.	.
.	.	.	.	.	.	.	.	.	.	.	.	4e\	.	.	.
=30	=30	=30	=30	=30	=30	=30	=30	=30	=30	=30	=30	=30	=30	=30	=30
1.G\	.	.	.	1.G/	.	.	.	1.B\	.	-mne	.	1.d\	ar-	ae-	.
2F\	-ri-	.	.	2G/	-ri-	.	.	2B\	-ri-	.	.	4e\	-tus	.	.
.	.	.	.	.	.	.	.	.	.	.	.	4f\	.	.	.
1E\	-tus	.	.	1G/	-tus	-mne	.	(2c\	-tus	per	.	2g\	.	.	.
.	.	.	.	.	.	.	.	2B\)	.	.	.	2g\	.	.	.
=31	=31	=31	=31	=31	=31	=31	=31	=31	=31	=31	=31	=31	=31	=31	=31
*	*	*	*	*	*	*	*	*	*ij	*	*	*	*	*	*
1.F\	Spi-	-mne	.	1.A\	ſpi-	o-	.	1.A\	Spi-	ae-	.	1f\	.	-vum	.
.	.	.	.	.	.	.	.	.	.	.	.	1.f\	.	.	.
2E\	-ri-	.	.	2A/	-ri-	.	.	4B\	-ri-	.	.	.	.	.	.
.	.	.	.	.	.	.	.	4c\	.	.	.	.	.	.	.
1D\	-tus	.	.	1B\	-tus	-mne	.	1d\	tus	.	.	.	.	.	.
*	*Xij	*	*	*	*Xij	*Xij	*	*	*Xij	*	*	*	*	*	*
.	.	.	.	.	.	.	.	.	.	.	.	2f\	.	.	.
=32	=32	=32	=32	=32	=32	=32	=32	=32	=32	=32	=32	=32	=32	=32	=32
!	!	!	!	!	!	!	!	!	!	!	!	!LO:LB:g=original	!	!	!
!	!	!	!	!	!	!	!	!	!	!	!	!LO:TX:t=P:problem=dwa takty wpisane z odnośnikiem "vi-de"	!	!	!
1C/	ar-	per	.	0c\	ar-	per	.	1e\	ar-	.	.	1g\	.	.	.
*lig	*	*	*	*	*	*	*	*	*	*	*	*	*	*	*
1FF/	.	ae-	.	.	.	.	.	0d\	.	.	.	1a\	.	.	.
!	!	!	!	!LO:TX:t=P:problem=brak kreski taktowej	!	!	!	!	!	!	!	!	!	!	!
1GG/	.	.	.	1B\	.	ae-	.	.	.	.	.	1d\	.	.	.
*Xlig	*	*	*	*	*	*	*	*	*	*	*	*	*	*	*
=33-	=33	=33	=33	=33-	=33	=33	=33	=33	=33	=33	=33	=33	=33	=33	=33
!	!	!	!	!	!	!	!	!	!	!	!	!LO:TX:t=P:problem=druga fermata pod nutą	!	!	!
0.C/;	-tus	-uum	.	0.c\;;	-tus	-uum	.	0.c\;<	-tus	-uum.	.	0.e\;;	.	.	.
==	==	==	==	==	==	==	==	==	==	==	==	==	==	==	==
*-	*-	*-	*-	*-	*-	*-	*-	*-	*-	*-	*-	*-	*-	*-	*-
!!!system-decoration: [(s1,s2,s3,s4)]
!!!RDF**kern: > = above
!!!RDF**kern: < = below
!!!EED: Andrzej Borzym
!!!EEV: 2021-04-06
!!!ENC: Kamil Watkowski
!!!END: 2021-03-27
!!!YEC: Copyright 2022 Narodowy Instytut Fryderyka Chopina (https://polishscores.org)
!!!YEM: Licence CC BY 4.0 (https://creativecommons.org/licenses/by/4.0)
